X:158
T:Single Drag - Regulation Fife Calls 1776-1856, #12 * 
B:American Veteran Fifer, Regulation Fife Calls 1776-1856, #12
M:2/4
L:1/8
Q:1/4=90
K:D
A>d d2|c>e e2|d>c d>e|f>e d2|e>f g>e|f>d e>c|d>f e>c d2 d2:||a2 a>f|g2 g>e|f2 f>d|e>a a2|
g>g g>e|f>f f>d|e>f g>f|e>a a2|a2 a>f|g2 g>e|f2 f>d|e>a a2|g>g g>d|f>f f>d|e>A B>c|d2 d2:||Td4 -d2 z2|Te4 -e2 z2|Tg4 Te4|THd4 z4||
% undeclared time change after second repeat.  No repair.
